X:13054
T:Petite Marguerite
R:Bourre  trois temps
A:Massif Central
O:France
M:3/4
L:1/4
Q:1/4=230
K:F
G/2A/2BA|GG/2A/2c|B2A|GF2|
G/2A/2BA|GG/2A/2c|B2A|G3:|
|:G/2A/2BA|FG/2A/2G|F2E|FG2|
G/2A/2BA|FG/2A/2G|F2E|1F3:|2FA/2B/2c/2d/2|
cA/2B/2A/2G/2|F zc|fz2||
